X:3246
T:Kerrywoman's Lament, The
O:england
M:4/4
L:1/8
Q:75
S:Junior Crehan
R:Air
D:Ceol an Clair
K:G
d d/2c/2A/2B/2 G2 E D2 E/2|G A2 (3A/2G/2A/2 B/2 G2 c3/2|B/2{c}B/2A/2B/2
d2 e G2 G|
G2 A (3A/2G/2E/2 G2 G/2E/2 =F-|-=F (3A/2G/2E/2 DE G G2 z|d/2c/2A/2B/2 G2
B d2 (3=f/2e/2d/2|
e2 de/2d/2 e=f d2|d/2c/2A/2B/2 G2 B/2c/2 d2 (3=f/2e/2d/2|e2 d<e d3 d|
g2 (3=f/2e/2d/2 eg B2 A-|-A (3A/2G/2A/2 B/2 G2 c3/2 B/2B/2A/2B/2|d2 e G2
G G2|
A (3A/2G/2E/2 G2 G/2E/2 =F2 (3A/2G/2E/2|DE G G3 z2||


